32x32/apps/kpovmodeler.svg

<svg height="32" width="32" xmlns="http://www.w3.org/2000/svg"><path d="m2 9.5v14a6 1.5 0 0 0 6 1.5 6 1.5 0 0 0 6-1.5v-14z" opacity=".2"/><path d="m2 8.5v14a6 1.5 0 0 0 6 1.5 6 1.5 0 0 0 6-1.5v-14z" fill="#24bc0d"/><ellipse cx="8" cy="9.5" opacity=".2" rx="6" ry="1.5"/><ellipse cx="8" cy="8.5" fill="#61dc3f" rx="6" ry="1.5"/><path d="m21 7 9 18s0 3-9 3-9-3-9-3z" opacity=".2"/><path d="m21 6 9 18s0 3-9 3-9-3-9-3z" fill="#3251e7"/><path d="m8 7a6 1.5 0 0 0 -6 1.5 6 1.5 0 0 0 .352.5 6 1.5 0 0 1 5.648-1 6 1.5 0 0 1 5.648 1 6 1.5 0 0 0 .352-.5 6 1.5 0 0 0 -6-1.5zm13-1-9 18s.021.24.213.574l8.787-17.574 8.787 17.574c.193-.333.213-.574.213-.574z" fill="#f4f4f7" opacity=".2"/></svg>

<svg xmlns="http://www.w3.org/2000/svg" height="32" width="32"><path style="opacity:.2" d="M2 9.5v14A6 1.5 0 0 0 8 25a6 1.5 0 0 0 6-1.5v-14z"/><path style="fill:#24bc0d" d="M2 8.5v14A6 1.5 0 0 0 8 24a6 1.5 0 0 0 6-1.5v-14H2z"/><ellipse style="opacity:.2" rx="6" ry="1.5" cy="9.5" cx="8"/><ellipse style="fill:#61dc3f" rx="6" ry="1.5" cy="8.5" cx="8"/><path style="opacity:.2" d="m21 7 9 18s0 3-9 3-9-3-9-3z"/><path style="fill:#3251e7" d="m21 6 9 18s0 3-9 3-9-3-9-3z"/><path style="opacity:.2;fill:#f4f4f7" d="M8 7a6 1.5 0 0 0-6 1.5 6 1.5 0 0 0 .352.5A6 1.5 0 0 1 8 8a6 1.5 0 0 1 5.648 1A6 1.5 0 0 0 14 8.5 6 1.5 0 0 0 8 7zM21 6l-9 18s.021.24.213.574L21 7l8.787 17.574C29.98 24.241 30 24 30 24L21 6z"/></svg>
